!!!!SEGMENT: pl-kk--kk-i-3--027_anonim--alleluia-emitte-spiritum-tuum.krn
!!!cenid: 15xx:635
!!!COM: Anonim
!!!COM-rismid: pe30004985
!!!CDT:
!!!CNT:
!!!OTL: Alleluia, Emitte spiritum tuum
!!!PDT:
!!!AGN:
!!!SMS-siglum: PL-Kk
!!!SMS-shelfmark: Kk.I.3
!!!SMS-shelfwork: 027 W
!!!SMS-variant:
!!!SMS-altvar:
!!!NIFC-rismid: 1001145528
!!!URL-scan: http://repozytorium.nifc.pl/skany/pl-kk-nut--i-3
!!!ONB-nifc: UWAGA: Discantus (s. 95v-96r, skan 0098), Tenor (s. 71r-v, skan 0243-0244), Bassus (s. 93r-94r, skan 0396-0397)
!!!AIN: 1 bass 1 soprn 1 tenor
!!!key:
**kern	**text	**text	**kern	**text	**text	**kern	**text	**text
*part3	*part3	*part3	*part2	*part2	*part2	*part1	*part1	*part1
*staff3	*staff3	*staff3	*staff2	*staff2	*staff2	*staff1	*staff1	*staff1
*I"[Bassus]	*	*	*I"[Tenor]	*	*	*I"[Discantus]	*	*
*I'B	*	*	*I'T	*	*	*I'S	*	*
*ICvox	*	*	*ICvox	*	*	*ICvox	*	*
*Ibass	*	*	*Itenor	*	*	*Isoprn	*	*
*clefF4	*	*	*clefC4	*	*	*clefC3	*	*
*k[]	*	*	*k[]	*	*	*k[]	*	*
*F:	*	*	*F:	*	*	*F:	*	*
*yyM2/1	*	*	*yyM2/1	*	*	*yyM2/1	*	*
=1	=1	=1	=1	=1	=1	=1	=1	=1
!!LO:TX:t=P:problem: brak zapisanego metrum	!	!	!	!	!	!	!	!
1F	Al-	.	1F	Al-	.	0c	Al-	.
1C	-le-	.	1E	-le-	.	.	.	.
=2	=2	=2	=2	=2	=2	=2	=2	=2
*	*	*	*lig	*	*	*	*	*
0D	.	.	1F	.	.	2F/	-le-	.
.	.	.	.	.	.	1f	.	.
.	.	.	1G	.	.	.	.	.
.	.	.	.	.	.	2e/	-lu-	.
*	*	*	*Xlig	*	*	*	*	*
=3	=3	=3	=3	=3	=3	=3	=3	=3
*	*	*	*lig	*	*	*	*	*
2FF/	.	.	1A	-lu-	.	1f	.	.
1F	.	.	.	.	.	.	.	.
.	.	.	1G	.	.	2d/	.	.
2E/	.	.	.	.	.	2e/	.	.
*	*	*	*Xlig	*	*	*	*	*
=4	=4	=4	=4	=4	=4	=4	=4	=4
*lig	*	*	*	*	*	*	*	*
1F	-lu-	.	1A	.	.	1c	.	.
1D	.	.	1A	-ia	.	1d	.	.
*Xlig	*	*	*	*	*	*	*	*
=5	=5	=5	=5	=5	=5	=5	=5	=5
*custos:F	*	*	*	*	*	*custos:g	*	*
1C	-ia	.	1c	.	.	2G/	-ia	.
!	!	!	!	!	!	!LO:LB:g=original	!	!
.	.	.	.	.	.	1g	.	.
!LO:LB:g=original	!	!	!	!	!	!	!	!
*lig	*	*	*	*	*	*	*	*
1F	.	.	0G	.	.	.	.	.
.	.	.	.	.	.	1f	.	.
=6	=6	=6	=6	=6	=6	=6	=6	=6
1C	.	.	.	.	.	.	.	.
.	.	.	.	.	.	2e/	.	.
*Xlig	*	*	*	*	*	*	*	*
*	*	*	*custos:A	*	*	*	*	*
1FF	.	.	1F	.	.	2f\	.	.
.	.	.	.	.	.	1F	.	.
=7	=7	=7	=7	=7	=7	=7	=7	=7
*	*	*	*lig	*	*	*	*	*
1F	.	.	1A	.	.	.	.	.
.	.	.	.	.	.	2A/	.	.
1C	.	.	1c	.	.	2G/	.	.
.	.	.	.	.	.	1g	.	.
*	*	*	*Xlig	*	*	*	*	*
=8	=8	=8	=8	=8	=8	=8	=8	=8
1D	.	.	1A	.	.	.	.	.
.	.	.	.	.	.	2f\	.	.
2GG/	.	.	0G	.	.	2g\	.	.
2C/	.	.	.	.	.	2e/	.	.
=9	=9	=9	=9	=9	=9	=9	=9	=9
2BB/	.	.	.	.	.	2d/	.	.
1C	.	.	.	.	.	1e	.	.
*	*	*	*lig	*	*	*	*	*
.	.	.	1E	.	.	.	.	.
2AA/	.	.	.	.	.	2c/	.	.
=10	=10	=10	=10	=10	=10	=10	=10	=10
2GG/	.	.	1G	.	.	1g	.	.
1G	.	.	.	.	.	.	.	.
*	*	*	*Xlig	*	*	*	*	*
*	*	*	*	*	*	*custos:f	*	*
.	.	.	0G	.	.	2e/	.	.
!	!	!	!	!	!	!LO:LB:g=original	!	!
2F/	.	.	.	.	.	2f\	.	.
=11	=11	=11	=11	=11	=11	=11	=11	=11
*lig	*	*	*	*	*	*	*	*
1G	.	.	.	.	.	1d	.	.
*custos:D	*	*	*	*	*	*	*	*
*	*	*	*lig	*	*	*	*	*
1C	.	.	1E	.	.	2c/	.	.
.	.	.	.	.	.	1g	.	.
*Xlig	*	*	*	*	*	*	*	*
!LO:LB:g=original	!	!	!	!	!	!	!	!
=12	=12	=12	=12	=12	=12	=12	=12	=12
1D	.	.	1F	.	.	.	.	.
.	.	.	.	.	.	2f\	.	.
*	*	*	*Xlig	*	*	*	*	*
2E/	.	.	1G	.	.	1e	.	.
2C/	.	.	.	.	.	.	.	.
=13	=13	=13	=13	=13	=13	=13	=13	=13
0D	.	.	0F	.	.	2f\	.	.
.	.	.	.	.	.	1e	.	.
.	.	.	.	.	.	2d/	.	.
=14	=14	=14	=14	=14	=14	=14	=14	=14
!	!	!	!	!	!	!LO:TX:t=P:problem= fermata zapisana od góry i od dołu	!	!
0AA;	.	.	0E;	.	.	0e;	.	.
=15	=15	=15	=15	=15	=15	=15	=15	=15
1AA	E-	As-	1A	E-	As-	1e	E-	As-
*	*	*	*custos:G	*	*	*custos:f	*	*
2C/	-mit-	-cen-	1A	-mit-	-cen-	2e\	-mit-	-cen-
!	!	!	!	!	!	!LO:LB:g=original	!	!
2D/	.	.	.	.	.	2f\	.	.
!	!	!	!LO:LB:g=original	!	!	!	!	!
=16	=16	=16	=16	=16	=16	=16	=16	=16
*lig	*	*	*lig	*	*	*	*	*
1E	-te	-dit	1G	-te	-dit	2g\	-te	-dit
.	.	.	.	.	.	1e	.	de-
1C	.	.	1c	.	.	.	.	.
.	.	.	.	.	.	1g	.	.
*Xlig	*	*	*Xlig	*	*	*	*	*
=17	=17	=17	=17	=17	=17	=17	=17	=17
*custos:GG	*	*	*	*	*	*	*	*
1D	.	de-	0G	.	de-	.	.	.
.	.	.	.	.	.	2f\	.	.
!LO:LB:g=original	!	!	!	!	!	!	!	!
2GG/	.	.	.	.	.	2e\	.	.
2G\	.	.	.	.	.	2d/	.	.
=18	=18	=18	=18	=18	=18	=18	=18	=18
2F\	.	.	1A	.	.	1f	.	.
1D	.	.	.	.	.	.	.	.
.	.	.	0E	.	-us	2f\	.	-us
1A	.	.	.	.	.	1d	.	.
=19	=19	=19	=19	=19	=19	=19	=19	=19
.	.	.	.	.	.	.	.	.
2G\	.	-us	.	.	.	2c/	.	.
*	*	*	*lig	*	*	*	*	*
2A\	spi-	.	1D	spi-	in	1d	.	.
1F	.	in	.	.	.	.	.	.
=20	=20	=20	=20	=20	=20	=20	=20	=20
.	.	.	1A	.	iu-	2c/	spi-	in
2D/	.	iu-	.	.	.	2f\	.	iu-
*	*	*	*Xlig	*	*	*	*	*
*	*	*	*	*	*	*custos:e	*	*
1E	.	-bi-	1G	.	-bi-	1e	.	-bi-
!	!	!	!	!	!	!LO:LB:g=original	!	!
=21	=21	=21	=21	=21	=21	=21	=21	=21
2C/	-ri-	.	0G	-ri-	-la-	2e/	-ri-	-la-
2D/	.	.	.	.	.	2f\	.	.
1BB	.	.	.	.	.	1d	.	.
=22	=22	=22	=22	=22	=22	=22	=22	=22
1AA	.	.	0A	.	.	1c	.	.
*custos:D	*	*	*	*	*	*	*	*
2AA/	.	.	.	.	.	2c/	.	.
!LO:LB:g=original	!	!	!	!	!	!	!	!
1D	.	-la-	.	.	.	1d	.	.
=23	=23	=23	=23	=23	=23	=23	=23	=23
.	.	.	1F	.	-ci-	.	.	.
2D/	.	-ci-	.	.	.	2d/	.	.
1C	-tum	-o-	1E	-tum	.	1e	.	.
=24	=24	=24	=24	=24	=24	=24	=24	=24
*lig	*	*	*lig	*	*	*	*	*
1D	tu-	.	1F	tu-	.	1d	-tum	.
1GG	.	.	1G	.	.	2d/	tu-	.
.	.	.	.	.	.	1B	.	-ci-
*Xlig	*	*	*Xlig	*	*	*	*	*
=25	=25	=25	=25	=25	=25	=25	=25	=25
1D	.	.	1F	.	-o-	.	.	.
.	.	.	.	.	.	2A/	.	-o-
*	*	*	*	*	*	*lig	*	*
2BB/	.	.	0D	-um	-ne	1B	-um	-ne
2GG/	-um	-ne	.	.	.	.	.	.
=26	=26	=26	=26	=26	=26	=26	=26	=26
*	*	*	*	*	*	*custos:G	*	*
1D	.	.	.	.	.	1A	.	.
!	!	!	!	!	!	!LO:LB:g=original	!	!
*	*	*	*	*	*	*Xlig	*	*
*	*	*	*custos:F	*	*	*	*	*
1GG	et	et	1D	et	et	2G/	et	et
.	.	.	.	.	.	1g	cre-	do-
!	!	!	!LO:LB:g=original	!	!	!	!	!
=27	=27	=27	=27	=27	=27	=27	=27	=27
0C	cre-	do-	1F	cre-	do-	.	.	.
.	.	.	.	.	.	1f	-a-	-mi-
.	.	.	1G	-a-	-mi-	.	.	.
.	.	.	.	.	.	2e/	.	.
=28	=28	=28	=28	=28	=28	=28	=28	=28
2FF/	-a-	-mi-	0G	-bun-	.	1f	-bun-	.
1F	.	.	.	.	.	.	.	.
.	.	.	.	.	.	2d/	.	.
2E/	.	.	.	.	.	2e/	.	.
=29	=29	=29	=29	=29	=29	=29	=29	=29
*	*	*	*lig	*	*	*	*	*
2F/	-bun-	.	1A	.	-nus-	2c/	.	.
2D/	.	.	.	.	.	2d/	.	.
1C	.	-nus	1c	.	.	1e	.	-nus
*	*	*	*Xlig	*	*	*	*	*
=30	=30	=30	=30	=30	=30	=30	=30	=30
*	*	*	*lig	*	*	*	*	*
1E	.	.	1G	.	.	2g\	.	.
.	.	.	.	.	.	1G	.	.
*lig	*	*	*	*	*	*	*	*
1G	.	.	1E	.	.	.	.	.
.	.	.	.	.	.	1B	.	.
*	*	*	*Xlig	*	*	*	*	*
=31	=31	=31	=31	=31	=31	=31	=31	=31
1GG	.	.	1G	.	.	.	.	.
*	*	*	*	*	*	*custos:d	*	*
.	.	.	.	.	.	1d	.	.
*Xlig	*	*	*	*	*	*	*	*
1D	.	.	0A	.	.	.	.	.
!	!	!	!	!	!	!LO:LB:g=original	!	!
.	.	.	.	.	.	2d/	.	.
=32	=32	=32	=32	=32	=32	=32	=32	=32
2AA/	.	.	.	.	.	1c	.	.
1A	.	.	.	.	.	.	.	.
*	*	*	*lig	*	*	*	*	*
.	.	.	1F	.	.	1A	.	.
2A\	.	.	.	.	.	.	.	.
=33	=33	=33	=33	=33	=33	=33	=33	=33
*lig	*	*	*	*	*	*	*	*
1F	.	.	1D	.	.	0d	.	.
*	*	*	*Xlig	*	*	*	*	*
1D	.	.	0F	.	.	.	.	.
*Xlig	*	*	*	*	*	*	*	*
=34	=34	=34	=34	=34	=34	=34	=34	=34
1A	.	.	.	.	.	1d	.	.
2F\	.	.	1D	.	.	1A	.	.
1D	.	.	.	.	.	.	.	.
=35	=35	=35	=35	=35	=35	=35	=35	=35
.	.	.	0G	.	.	2B/	.	.
2C/	.	.	.	.	.	1c	.	.
1D	.	.	.	.	.	.	.	.
.	.	.	.	.	.	2B/	.	.
=36	=36	=36	=36	=36	=36	=36	=36	=36
*	*	*	*lig	*	*	*	*	*
2C/	.	.	1E	.	.	1c	.	.
2AA/	.	.	.	.	.	.	.	.
*custos:AA	*	*	*custos:A	*	*	*	*	*
1E	.	.	1G	.	.	1B	.	.
*	*	*	*Xlig	*	*	*	*	*
!LO:LB:g=original	!	!	!LO:LB:g=original	!	!	!	!	!
=37	=37	=37	=37	=37	=37	=37	=37	=37
*	*	*	*lig	*	*	*	*	*
1AA	.	.	1A	.	.	2A/	.	.
.	.	.	.	.	.	2e\	.	.
*	*	*	*	*	*	*custos:f	*	*
0C	.	.	1F	.	.	2d\	.	.
!	!	!	!	!	!	!LO:LB:g=original	!	!
.	.	.	.	.	.	1f	.	.
*	*	*	*Xlig	*	*	*	*	*
=38	=38	=38	=38	=38	=38	=38	=38	=38
.	.	.	0G	.	-nus	.	.	.
.	.	.	.	.	.	2e\	.	.
1FF	.	.	.	.	.	1f	-tur	.
=39	=39	=39	=39	=39	=39	=39	=39	=39
2FF/	.	.	1F	-tur	in	2f\	et	.
1BB-X	-tur	in	.	.	.	1.d	re-	.
.	.	.	1F	et	.	.	.	.
2BB-/	et	vo-	.	.	.	.	.	.
=40	=40	=40	=40	=40	=40	=40	=40	=40
2AA/	re-	.	1F	re-	.	2c/	-no-	in
2BB-yX/	.	.	.	.	.	2d/	-va-	vo-
2FF/	-no-	.	1F,	-no-	.	2c/	.	.
1BB-	-va-	.	.	.	.	1d	-bis	.
=41	=41	=41	=41	=41	=41	=41	=41	=41
.	.	.	1F	-va-	in	.	.	.
2C/	.	.	.	.	.	1c	.	.
1D	-bis	.	1F	-bis	.	.	.	.
.	.	.	.	.	.	2B/	fa-	.
=42	=42	=42	=42	=42	=42	=42	=42	=42
1C	fa-	.	1E	fa-	vo-	1c	.	.
*custos:F	*	*	*	*	*	*	*	*
*	*	*	*lig	*	*	*	*	*
2FF/	.	.	1F	.	.	2c/	.	.
*	*	*	*	*	*	*custos:e	*	*
!LO:LB:g=original	!	!	!	!	!	!	!	!
1F	.	.	.	.	.	2d/	.	.
!	!	!	!	!	!	!LO:LB:g=original	!	!
=43	=43	=43	=43	=43	=43	=43	=43	=43
!!LO:TX:t=P:problem:ćwierćnuty zapisane jako półnuty połączone belką	!	!	!	!	!	!	!	!
.	.	.	1G	.	.	1e	-ci-	.
4E/	.	.	.	.	.	.	.	.
4D/	.	.	.	.	.	.	.	.
*	*	*	*Xlig	*	*	*	*	*
*	*	*	*lig	*	*	*	*	*
1E	-ci-	-ce	1G	-ci-	-ce	1e	.	.
=44	=44	=44	=44	=44	=44	=44	=44	=44
1F	.	.	1D	.	.	2d/	.	.
.	.	.	.	.	.	1f	.	.
*lig	*	*	*Xlig	*	*	*	*	*
1C	.	.	0G	.	.	.	.	.
.	.	.	.	.	.	2e/	.	.
=45	=45	=45	=45	=45	=45	=45	=45	=45
*	*	*	*custos:F	*	*	*	*	*
1D	.	.	.	.	.	1d	-em	.
!	!	!	!LO:LB:g=original	!	!	!	!	!
*Xlig	*	*	*	*	*	*	*	*
1F	-em	.	1F	-em	.	1c	.	-ce
=46	=46	=46	=46	=46	=46	=46	=46	=46
*lig	*	*	*lig	*	*	*	*	*
1FF	ter-	.	1F	ter-	tu-	2c/	ter-	tv-
.	.	.	.	.	.	1d	.	.
1GG	.	.	1D	.	.	.	.	.
.	.	.	.	.	.	4c/	.	.
.	.	.	.	.	.	4B/	.	.
*Xlig	*	*	*Xlig	*	*	*	*	*
=47	=47	=47	=47	=47	=47	=47	=47	=47
2FF/	.	.	1F	.	.	1A	.	.
1F	.	tu-	.	.	.	.	.	.
*	*	*	*lig	*	*	*	*	*
.	.	.	1G	.	.	1G	.	.
2E/	.	.	.	.	.	.	.	.
=48	=48	=48	=48	=48	=48	=48	=48	=48
*lig	*	*	*	*	*	*	*	*
1F	.	.	1A	.	.	2F/	.	.
*	*	*	*	*	*	*custos:d	*	*
.	.	.	.	.	.	2c/	.	.
!	!	!	!	!	!	!LO:LB:g=original	!	!
*	*	*	*Xlig	*	*	*	*	*
*	*	*	*lig	*	*	*	*	*
1D	.	.	1A	-re	-be	2d/	.	.
.	.	.	.	.	.	1f	.	.
*Xlig	*	*	*	*	*	*	*	*
=49	=49	=49	=49	=49	=49	=49	=49	=49
2C/	-re	.	1c	.	.	.	.	.
*custos:FF	*	*	*	*	*	*	*	*
1AA	.	.	.	.	.	4e/	.	.
.	.	.	.	.	.	4d/	.	.
!LO:LB:g=original	!	!	!	!	!	!	!	!
*	*	*	*Xlig	*	*	*	*	*
.	.	.	1A	.	.	2e\	.	.
2FF/	.	.	.	.	.	2f\	.	.
=50	=50	=50	=50	=50	=50	=50	=50	=50
2GG/	.	.	0G	.	.	2d/	.	.
2AA/	.	.	.	.	.	1f	.	.
2BB/	.	.	.	.	.	.	.	.
2C/	.	.	.	.	.	2e\	-re	-be
=51	=51	=51	=51	=51	=51	=51	=51	=51
!LO:N:vis=00	!	!	!LO:N:vis=00	!	!	!LO:N:vis=00	!	!
0FF	.	-be	0F;	.	.	0f	.	.
==	==	==	==	==	==	==	==	==
*-	*-	*-	*-	*-	*-	*-	*-	*-
!!!system-decoration: [(s1,s2,s3)]
!!!ENC: Anastazja Marusiak
!!!END: 2021-01-11
!!!ENC: Natalia Wrzos
!!!END: 2021-01-24
